X: 1
T: Gasp\'e Reel
C: trad. French Canadian
R: reel
S: Fiddle Hell Online 2020-06-17 Fiddle Hell Quebecois Jam handout
Z: 2021 John Chambers <jc:trillian.mit.edu>
M: C|
L: 1/8
K: D
|:"D"f2ef "A"e2f2 | "D"FAFA "G"B2A2 | "A7"g2fg f2e2 | "G"BABc "A"B2A2 |
| "D"f2ef "A"e2f2 | "D"FAFA "G"B2A2 | "A7"g2fg f2e2 | "A7"B2c2 "D"d4 :|
|:"A7"e2f2 g3e | "D"f2g2 a4 | "A7"e2f2 g2e2 | "G"BABc "D"B2A2 |
| "A7"e2f2 g3e | "D"f2g2 a4 | "A7"e2f2 gfe2 | "A7"B2c2 "D"d4 :|
